src/assets/selectIcons/varie_8.svg

<svg xmlns="http://www.w3.org/2000/svg" viewBox="0 0 512 512" style="height: 512px; width: 512px;"><path d="M0 0h512v512H0z" fill="#000" fill-opacity="1"></path><g class="" transform="translate(0,0)" style=""><path d="M221.75 17.813c-2.866.013-5.723.092-8.594.25C94.004 24.596 10.79 136.428 17.436 251.155 25.995 398.813 164.3 501.693 306.315 492.562h.03c68.975-4.446 134.884-33.45 186.063-79.562l4.344-3.906-1.625-5.625-29.844-102.595-1.217-4.188-3.97-1.75L378 258.594c14.594-24.457 22.398-53.31 21-82.563-4.3-89.976-83.124-154.5-168.656-158.06-2.85-.12-5.728-.17-8.594-.157zm.125 18.687c1.174-.007 2.36.015 3.53.03L218.5 81.28l-.28 1.75.155.626c-26.733 2.106-53.554 11.503-75.875 28.438l-14.375-47.28c25.05-16.172 54.175-26.346 86.063-28.095 2.567-.142 5.13-.205 7.687-.22zm22.25 1.406c38.27 5.08 74 23.623 99.28 51.375l-34 19.94-.374.218c-19.422-15.903-44.874-24.69-71.592-26.063l-.22-.938 6.907-44.53zm-132 38.5l14.344 47.25.624 2.094c-14.64 15.204-26.215 34.55-32.844 58.125-.675 2.4-1.285 4.79-1.875 7.156l-40.47-33.218c13.17-31.817 33.873-60.15 60.22-81.406zM355.25 104.03c14.607 20.833 23.788 45.562 25.094 72.876.025.52.044 1.044.062 1.563l-35.844 2.874c-.124-2.074-.265-4.16-.5-6.25-2.332-20.82-10.02-38.198-21.343-52.03l32.53-19.033zm-116.125 44.94c2.345.038 4.665.25 6.97.593l-1.47 39.28c-4.208.59-8.338 1.873-12.22 3.907l-43.718-17.813c11.268-15.01 28.152-25.316 47.938-25.937.834-.026 1.668-.045 2.5-.03zm25.47 6.843c14.38 7.937 24.832 22.162 25.217 39.343.145 6.436-1.438 13.01-4.218 18.75-1.47-4.27-3.73-8.338-6.813-12-4.44-5.274-10.04-9.043-16.092-11.22l.593.033 1.314-34.907zm-219.44 20.625l43.032 35.375c-3.903 25.766-2.57 49.148 2.97 69.968L39 275.22c-1.418-8.22-2.41-16.602-2.906-25.158-1.455-25.12 1.79-50.093 9.062-73.625zm134.282 14.875l38.032 15.562c-4.74 7.95-6.338 17.343-4.657 26.313l-28.844 25.125c-6.018-10.772-9.68-22.974-10.157-36.188-.384-10.633 1.657-21.176 5.625-30.813zm200.22 5.937c-3.353 28.986-16.63 56.285-36.75 76.22L321 251.56c13.37-13.268 21.052-31.418 23.188-51.437l35.468-2.875zm-159 53.875c7.497 11.248 19.977 18.867 33.124 21.53l2.782 32.376c-23.827-2.664-46.187-14.117-61.656-31.436l25.75-22.47zm85.28 11.813l22.625 22.625c-15.317 10.92-33.362 18.028-53.25 19.656l-2.718-32c12.847-1.323 23.948-4.934 33.344-10.283zM43.22 294.594l54.718 6.875c9.884 23.128 25.378 42.458 44.593 57.75l-53.936 22.405c-20.91-25.13-36.706-54.492-45.375-87.03zM448.06 310.03l.47.22 26.906 92.563c-30.294 26.24-65.746 46.28-103.688 58.406l8.594-87.033.156-1.562c26.19-14.795 49.554-35.547 67.563-62.594zm-287.28 61.876c26.235 15.822 57.278 25.373 89.593 28.156l-44 61c-39.634-13.116-75.807-35.403-104.53-64.718l58.936-24.438zm199.968 10.53l-8.344 84.22c-15.49 3.766-31.305 6.222-47.28 7.25-27.044 1.742-53.936-.874-79.688-7.312l45.656-63.344 1.72-2.375c29.813-.32 60.02-6.33 87.936-18.438z" fill="#fff" fill-opacity="1"></path></g></svg>

<?xml version="1.0" encoding="UTF-8" standalone="no"?>
<!DOCTYPE svg PUBLIC "-//W3C//DTD SVG 1.1//EN" "http://www.w3.org/Graphics/SVG/1.1/DTD/svg11.dtd">
<svg width="100%" height="100%" viewBox="0 0 512 512" version="1.1" xmlns="http://www.w3.org/2000/svg" xmlns:xlink="http://www.w3.org/1999/xlink" xml:space="preserve" xmlns:serif="http://www.serif.com/" style="fill-rule:evenodd;clip-rule:evenodd;stroke-linejoin:round;stroke-miterlimit:2;">
    <rect x="0" y="0" width="512" height="512" style="fill-rule:nonzero;"/>
    <g>
        <path d="M221.75,17.813C218.884,17.826 216.027,17.905 213.156,18.063C94.004,24.596 10.79,136.428 17.436,251.155C25.995,398.813 164.3,501.693 306.315,492.562L306.345,492.562C375.32,488.116 441.229,459.112 492.408,413L496.752,409.094L495.127,403.469L465.283,300.874L464.066,296.686L460.096,294.936L378,258.594C392.594,234.137 400.398,205.284 399,176.031C394.7,86.055 315.876,21.531 230.344,17.971C227.494,17.851 224.616,17.801 221.75,17.814L221.75,17.813ZM221.875,36.5C223.049,36.493 224.235,36.515 225.405,36.53L218.5,81.28L218.22,83.03L218.375,83.656C191.642,85.762 164.821,95.159 142.5,112.094L128.125,64.814C153.175,48.642 182.3,38.468 214.188,36.719C216.755,36.577 219.318,36.514 221.875,36.499L221.875,36.5ZM244.125,37.906C282.395,42.986 318.125,61.529 343.405,89.281L309.405,109.221L309.031,109.439C289.609,93.536 264.157,84.749 237.439,83.376L237.219,82.438L244.126,37.908L244.125,37.906ZM112.125,76.406L126.469,123.656L127.093,125.75C112.453,140.954 100.878,160.3 94.249,183.875C93.574,186.275 92.964,188.665 92.374,191.031L51.904,157.813C65.074,125.996 85.777,97.663 112.124,76.407L112.125,76.406ZM355.25,104.03C369.857,124.863 379.038,149.592 380.344,176.906C380.369,177.426 380.388,177.95 380.406,178.469L344.562,181.343C344.438,179.269 344.297,177.183 344.062,175.093C341.73,154.273 334.042,136.895 322.719,123.063L355.249,104.03L355.25,104.03ZM239.125,148.97C241.47,149.008 243.79,149.22 246.095,149.563L244.625,188.843C240.417,189.433 236.287,190.716 232.405,192.75L188.687,174.937C199.955,159.927 216.839,149.621 236.625,149C237.459,148.974 238.293,148.955 239.125,148.97ZM264.595,155.813C278.975,163.75 289.427,177.975 289.812,195.156C289.957,201.592 288.374,208.166 285.594,213.906C284.124,209.636 281.864,205.568 278.781,201.906C274.341,196.632 268.741,192.863 262.689,190.686L263.282,190.719L264.596,155.812L264.595,155.813ZM45.155,176.438L88.187,211.813C84.284,237.579 85.617,260.961 91.157,281.781L39,275.22C37.582,267 36.59,258.618 36.094,250.062C34.639,224.942 37.884,199.969 45.156,176.437L45.155,176.438ZM179.437,191.313L217.469,206.875C212.729,214.825 211.131,224.218 212.812,233.188L183.968,258.313C177.95,247.541 174.288,235.339 173.811,222.125C173.427,211.492 175.468,200.949 179.436,191.312L179.437,191.313ZM379.657,197.25C376.304,226.236 363.027,253.535 342.907,273.47L321,251.56C334.37,238.292 342.052,220.142 344.188,200.123L379.656,197.248L379.657,197.25ZM220.657,251.125C228.154,262.373 240.634,269.992 253.781,272.655L256.563,305.031C232.736,302.367 210.376,290.914 194.907,273.595L220.657,251.125ZM305.937,262.938L328.562,285.563C313.245,296.483 295.2,303.591 275.312,305.219L272.594,273.219C285.441,271.896 296.542,268.285 305.938,262.936L305.937,262.938ZM43.22,294.594L97.938,301.469C107.822,324.597 123.316,343.927 142.531,359.219L88.595,381.624C67.685,356.494 51.889,327.132 43.22,294.594ZM448.06,310.03L448.53,310.25L475.436,402.813C445.142,429.053 409.69,449.093 371.748,461.219L380.342,374.186L380.498,372.624C406.688,357.829 430.052,337.077 448.061,310.03L448.06,310.03ZM160.78,371.906C187.015,387.728 218.058,397.279 250.373,400.062L206.373,461.062C166.739,447.946 130.566,425.659 101.843,396.344L160.779,371.906L160.78,371.906ZM360.748,382.436L352.404,466.656C336.914,470.422 321.099,472.878 305.124,473.906C278.08,475.648 251.188,473.032 225.436,466.594L271.092,403.25L272.812,400.875C302.625,400.555 332.832,394.545 360.748,382.437L360.748,382.436Z" style="fill:rgb(208,189,140);fill-rule:nonzero;"/>
    </g>
</svg>
